X:23
T:Huntsmans Chorus In Der Freyschutz. Le4.023
B:L.Leadley MS#4 c1850
Z:Village Music Project, 2016 Steve Mansfield
M:2/4
L:1/8
N:* Marked 'First time' in Mss but no repeat point marked
N:** Indistinct marking in Mss, transcribed as key change to Ab
Q:2/4=60
K:D
A | d2d/e/f/g/ | a2 ff | eaea | f/g/f/e/ dA |
d2 d/e/f/g/ | a2 ff | "*" f/e/d/e/ fe | d3 :|
e | f2 ff | d2 dd | g2 gg | e2 ee |
f2 ff | d2 dd | g2 gg | e2 zA |
f2 ff | g2 ff | e2 f/e/d/f/ | f2 dd |
f2 ff | g2 ff | f/e/d/e/ fe | d3 A |
AA/A/ AA/A/ | AA/A/ AA/A/ |: d2 Af | d2 Af |
{a}ge {a}ge | {a}ge {a}ge :| f d/f/ a2 | f d/f/ a2 |
fd/d/ dd/d/ | d4 ||"**" dD/D/ DA/A/ | AF/F/ Fd/d/ |
dA/A/ Af/f/ | f2 e/d/c/B/ | AF/F/ Fd/d/ | dA/A/ Af/f/ |
fd/d/ da | a2 g/f/g/e/ | dd/d/ df | d2 d'2 | d'2 z2 |]

